usr/share/icons/biglinux-icons-material/scalable/apps/amazon-store.svg

<?xml version="1.0" encoding="UTF-8" standalone="no"?>
<svg
   width="24"
   height="24"
   viewBox="0 0 6.349875 6.349875"
   version="1.1"
   id="svg15427"
   sodipodi:docname="amazonclouddrive.svg"
   xml:space="preserve"
   inkscape:version="1.2.2 (b0a8486541, 2022-12-01)"
   xmlns:inkscape="http://www.inkscape.org/namespaces/inkscape"
   xmlns:sodipodi="http://sodipodi.sourceforge.net/DTD/sodipodi-0.dtd"
   xmlns="http://www.w3.org/2000/svg"
   xmlns:svg="http://www.w3.org/2000/svg"><defs
     id="defs15431"><radialGradient
       id="paint0_radial_2_129"
       cx="0"
       cy="0"
       r="1"
       gradientUnits="userSpaceOnUse"
       gradientTransform="matrix(0,5.8207186,-5.8207186,0,3.1749329,0.26459255)"><stop
         stop-color="#FAFAFA"
         id="stop8838" /><stop
         offset="1"
         stop-color="#B0B0B0"
         id="stop8840" /></radialGradient></defs><sodipodi:namedview
     id="namedview15429"
     pagecolor="#ffffff"
     bordercolor="#000000"
     borderopacity="0.25"
     inkscape:showpageshadow="2"
     inkscape:pageopacity="0.0"
     inkscape:pagecheckerboard="0"
     inkscape:deskcolor="#d1d1d1"
     showgrid="false"
     inkscape:zoom="4.6845824"
     inkscape:cx="-52.939617"
     inkscape:cy="23.374549"
     inkscape:window-width="2560"
     inkscape:window-height="1000"
     inkscape:window-x="1680"
     inkscape:window-y="0"
     inkscape:window-maximized="1"
     inkscape:current-layer="svg15427" /><path
     fill-rule="evenodd"
     clip-rule="evenodd"
     d="m 2.6298229,0.28252565 c -0.02891,0.00842 -0.05921,0.012456 -0.09092,0.01212 -0.196436,0.01579 -0.390403,0.047087 -0.581902,0.093907 -0.821833,0.1953883 -1.340086,0.70128015 -1.554762,1.51767035 -0.100626,0.41602 -0.146085,0.8380909 -0.136384,1.2662577 -0.0081,0.4026349 0.03129,0.8004811 0.1182,1.1935383 0.204783,0.8731343 0.745266,1.4073172 1.62144,1.6024972 0.476019,0.09795 0.956876,0.134299 1.442615,0.108979 0.431844,-0.0073 0.8521002,-0.08001 1.2607941,-0.218091 C 5.2132428,5.6743842 5.5779373,5.3381319 5.8029874,4.8506468 5.9243229,4.5695061 6.0031408,4.276671 6.039388,3.972168 6.087832,3.5389214 6.097939,3.1047222 6.069709,2.6695706 6.0492836,2.3230367 5.9826099,1.9857711 5.8696615,1.6577894 5.6721804,1.1130337 5.3054487,0.73033473 4.7695192,0.50968975 4.4471572,0.38707895 4.1137623,0.31235415 3.7693609,0.28552595 c -0.379828,-0.026881 -0.759657,-0.027891 -1.139538,-0.003 z"
     fill="url(#paint0_radial_2_129)"
     id="path8836"
     style="fill:url(#paint0_radial_2_129);stroke-width:0.264578"
     sodipodi:nodetypes="cccccccccccccccc" /><g
     fill-rule="evenodd"
     id="g15425"
     transform="matrix(0.46873163,0,0,0.46873163,-0.7936818,-0.79382156)"><path
       d="m 9.073,7.87 c 0,0.446 0.011,0.816 -0.204,1.21 -0.173,0.321 -0.448,0.518 -0.754,0.518 -0.419,0 -0.662,-0.333 -0.662,-0.825 0,-0.972 0.833,-1.149 1.62,-1.149 v 0.247 m 1.099,2.778 A 0.22,0.22 0 0 1 9.915,10.677 C 9.554,10.363 9.489,10.217 9.289,9.917 8.691,10.555 8.269,10.746 7.493,10.746 6.576,10.746 5.861,10.155 5.861,8.97 5.861,8.045 6.341,7.415 7.023,7.107 7.613,6.834 8.44,6.787 9.072,6.711 V 6.563 C 9.072,6.293 9.092,5.972 8.941,5.738 8.808,5.528 8.553,5.442 8.329,5.442 7.913,5.442 7.543,5.664 7.453,6.126 7.433,6.229 7.363,6.33 7.263,6.335 L 6.206,6.217 C 6.117,6.195 6.019,6.12 6.043,5.977 6.288,4.64 7.445,4.235 8.481,4.235 c 0.53,0 1.223,0.147 1.64,0.567 0.531,0.518 0.48,1.209 0.48,1.96 v 1.776 c 0,0.535 0.212,0.768 0.411,1.057 0.07,0.102 0.086,0.227 -0.002,0.303 a 52.39,52.39 0 0 0 -0.836,0.757 L 10.17,10.651"
       fill="#201f1f"
       id="path15419" /><path
       d="m 11.886,11.625 c -0.927,0.7 -2.27,1.074 -3.428,1.074 A 6.117,6.117 0 0 1 4.271,11.061 c -0.087,-0.08 -0.01,-0.19 0.095,-0.128 a 8.27,8.27 0 0 0 4.19,1.139 8.138,8.138 0 0 0 3.196,-0.67 c 0.157,-0.068 0.289,0.105 0.135,0.222"
       fill="#ff9900"
       id="path15421" /><path
       d="m 12.272,11.173 c -0.118,-0.155 -0.784,-0.074 -1.081,-0.037 -0.092,0.011 -0.106,-0.07 -0.023,-0.129 0.529,-0.381 1.4,-0.272 1.5,-0.143 0.101,0.128 -0.026,1.021 -0.525,1.447 -0.076,0.066 -0.148,0.031 -0.114,-0.056 0.11,-0.286 0.362,-0.927 0.243,-1.082"
       fill="#ff9900"
       id="path15423" /></g></svg>

<svg width="64" height="64" viewBox="0 0 16.933 16.933" xmlns="http://www.w3.org/2000/svg"><rect x="1.852" y="281.92" width="13.229" height="13.229" rx="2.035" ry="2.035" fill="#e6e6e6" transform="matrix(1.04 0 0 1.04 -.339 -291.61)" stroke-width=".962" paint-order="markers stroke fill"/><g fill-rule="evenodd"><path d="M9.073 7.87c0 .446.011.816-.204 1.21-.173.321-.448.518-.754.518-.419 0-.662-.333-.662-.825 0-.972.833-1.149 1.62-1.149v.247m1.099 2.778a.22.22 0 0 1-.257.028c-.361-.314-.426-.46-.626-.76-.598.638-1.02.829-1.796.829-.917 0-1.632-.591-1.632-1.776 0-.925.48-1.555 1.162-1.863.59-.273 1.417-.32 2.049-.396v-.148c0-.27.02-.591-.131-.825-.133-.21-.388-.296-.612-.296-.416 0-.786.222-.876.684-.02.103-.09.204-.19.209l-1.057-.118c-.089-.022-.187-.097-.163-.24.245-1.337 1.402-1.742 2.438-1.742.53 0 1.223.147 1.64.567.531.518.48 1.209.48 1.96v1.776c0 .535.212.768.411 1.057.07.102.086.227-.002.303a52.39 52.39 0 0 0-.836.757l-.004-.004" fill="#201f1f"/><path d="M11.886 11.625c-.927.7-2.27 1.074-3.428 1.074a6.117 6.117 0 0 1-4.187-1.638c-.087-.08-.01-.19.095-.128a8.27 8.27 0 0 0 4.19 1.139 8.138 8.138 0 0 0 3.196-.67c.157-.068.289.105.135.222" fill="#f90"/><path d="M12.272 11.173c-.118-.155-.784-.074-1.081-.037-.092.011-.106-.07-.023-.129.529-.381 1.4-.272 1.5-.143.101.128-.026 1.021-.525 1.447-.076.066-.148.031-.114-.056.11-.286.362-.927.243-1.082" fill="#f90"/></g></svg>
